/* XPM */
/*
 * vlhe-mini.xpm - VLHE, Virtual Legacy Hardware Emulation: a compact disc
 * and a note, 16x16. KDE 1 icon, design/54 G12, 2026-10-03.
 *
 * Copyright (c) 2026 Thomas Tranter
 * SPDX-License-Identifier: BSD-3-Clause
 */
static char *vlhe[] = {
"16 16 6 1",
". c None",
"k c #000000",
"g c #a0a0a4",
"h c #ffffff",
"s c #c0c0c0",
"b c #0000c0",
"................",
".....kkkkkk.....",
"...kkggggggkk...",
"..kkghhhggggkb..",
"..kghhhhgggggbb.",
".kgghhhkkggggbb.",
".kggggk..kgggbkb",
".kgggk....kggbk.",
".kgggk....kggbk.",
".kggggk..ksggbk.",
".kgggggkkssbbbk.",
"..kgggggsgbbbb..",
"..kkgggggggbbk..",
"...kkgggggggk...",
".....kkkkkk.....",
"................"
};
